!!!!SEGMENT: pl-cz--iii-554--001-010_raszek-waclaw--missa-ex-c-sanctus.krn
!!!cenid: 17xx:1031
!!!COM: Raszek, Wacław
!!!COM-rismID:
!!!CDT: <1848->1848
!!!CNT:
!!!OPR: Missa ex C
!!!OTL: Sanctus
!!!OMV: 010
!!!PDT: 1780
!!!AGN: Sacred; Mass
!!!SMS-siglum: PL-CZ
!!!SMS-shelfmark: III-554
!!!SMS-shelfwork: 001-010 M
!!!SMS-variant:
!!!SMS-altvar:
!!!NIFC-rismSourceID: 300001043
!!!NIFC-islandoraID: pl-cz:38848
!!!URL-pdf-islandora: https://repozytorium.nifc.pl/islandora/object/pl-cz%3A38848/datastream/PDF/view
!!!URL-scan:
!!!ONB-nifc: UWAGA: części Mszy: Kyrie, Gloria, Laudamus, Qui tollis, Quoniam, Cum sancto spiritu, Credo, Et incarnatus, Et resurrexit, Sanctus, Benedictus, Agnus Dei, Dona nobis
!!!OMD: adagio
!!!AIN: 1 alto 1 bass 2 oboe 1 soprn 1 tenor 2 tromp 1 viola 1 violb 2 violn
!!!key: C
**kern	**dynam	**kern	**dynam	**kern	**dynam	**kern	**dynam	**kern	**text	**dynam	**kern	**text	**dynam	**kern	**text	**dynam	**kern	**text	**dynam	**kern	**dynam	**kern	**dynam	**kern	**dynam	**kern	**dynam
*part12	*part12	*part11	*part11	*part10	*part10	*part9	*part9	*part8	*part8	*part8	*part7	*part7	*part7	*part6	*part6	*part6	*part5	*part5	*part5	*part4	*part4	*part3	*part3	*part2	*part2	*part1	*part1
*staff12	*	*staff11	*	*staff10	*	*staff9	*	*staff8	*staff8	*	*staff7	*staff7	*	*staff6	*staff6	*	*staff5	*staff5	*	*staff4	*	*staff3	*	*staff2	*	*staff1	*
*I"Violone	*	*I"Viola di alto. oblig.	*	*I"Violino 2do.	*	*I"Violino I	*	*I"Basſo.	*	*	*I"Tenore.	*	*	*I"Alto.	*	*	*I"Canto.	*	*	*I"Clarino 2do. Ex C	*	*I"Clarino 1mo. Ex C.	*	*I"Oboe Secundo.	*	*I"Oboe Primo.	*
*I'vlne	*	*I'vla obl	*	*I'vl 2	*	*I'vl 1	*	*I'B	*	*	*I'T	*	*	*I'A	*	*	*I'S	*	*	*I'clno 2	*	*I'clno 1	*	*I'ob 2	*	*I'ob 1	*
*Iviolb	*	*Iviola	*	*Ivioln	*	*Ivioln	*	*Ibass	*	*	*Itenor	*	*	*Ialto	*	*	*Isoprn	*	*	*Itromp	*	*Itromp	*	*Ioboe	*	*Ioboe	*
*ICstr	*	*ICstr	*	*ICstr	*	*ICstr	*	*ICvox	*	*	*ICvox	*	*	*ICvox	*	*	*ICvox	*	*	*ICbras	*	*ICbras	*	*ICww	*	*ICww	*
*clefF4	*	*clefC3	*	*clefG2	*	*clefG2	*	*clefF4	*	*	*clefC4	*	*	*clefC3	*	*	*clefC1	*	*	*clefG2	*	*clefG2	*	*clefG2	*	*clefG2	*
*ITrd0c0	*	*	*	*	*	*	*	*	*	*	*	*	*	*	*	*	*	*	*	*	*	*	*	*	*	*	*
*k[]	*	*k[]	*	*k[]	*	*k[]	*	*k[]	*	*	*k[]	*	*	*k[]	*	*	*k[]	*	*	*k[]	*	*k[]	*	*k[]	*	*k[]	*
*C:	*	*C:	*	*C:	*	*C:	*	*C:	*	*	*C:	*	*	*C:	*	*	*C:	*	*	*C:	*	*C:	*	*C:	*	*C:	*
*M3/4	*	*M3/4	*	*M3/4	*	*M3/4	*	*M3/4	*	*	*M3/4	*	*	*M3/4	*	*	*M3/4	*	*	*M3/4	*	*M3/4	*	*M3/4	*	*M3/4	*
*all\right	*	*all\right	*	*all\right	*	*all\right	*	*all\right	*	*	*all\right	*	*	*all\right	*	*	*all\right	*	*	*all\right	*	*all\right	*	*all\right	*	*all\right	*
=1	=1	=1	=1	=1	=1	=1	=1	=1	=1	=1	=1	=1	=1	=1	=1	=1	=1	=1	=1	=1	=1	=1	=1	=1	=1	=1	=1
*	*	*	*	*2\right	*	*2\right	*	*2\right	*	*	*2\right	*	*	*2\right	*	*	*2\right	*	*	*2\right	*	*2\right	*	*2\right	*	*2\right	*
!LO:TX:t=P:problem=mixed beam	!	!	!	!	!	!	!	!	!	!	!LO:TX:a:t=T.	!	!	!LO:TX:a:t=T.	!	!	!	!	!	!	!	!	!	!	!	!	!
!LO:TX:a:t=ada&colon;	!	!LO:TX:a:t=adagio.	!	!	!	!LO:TX:a:t=ada&colon;	!	!LO:TX:a:t=ada&colon;	!	!	!LO:TX:a:t=ada.	!	!	!LO:TX:a:t=ada&colon;	!	!	!	!	!LO:DY:a	!LO:TX:a:t=ada&colon;	!	!LO:TX:a:t=adag.	!	!LO:TX:a:t=ada.	!	!LO:TX:a:t=ada&colon;	!
8C/L	.	8c\L	.	2.ee\	.	2.ccc\	.	2.c\	San-	.	2.c\	Sanc-	.	2.g\	San-	.	2.ee\	Sanc-	p	2cc\	.	2ee\	.	2.ee\	.	2.ccc\	.
8c\	.	8cc\	.	.	.	.	.	.	.	.	.	.	.	.	.	.	.	.	.	.	.	.	.	.	.	.	.
8G\	.	8g\	.	.	.	.	.	.	.	.	.	.	.	.	.	.	.	.	.	.	.	.	.	.	.	.	.
8c\	.	8cc\	.	.	.	.	.	.	.	.	.	.	.	.	.	.	.	.	.	.	.	.	.	.	.	.	.
8E\	.	8e\	.	.	.	.	.	.	.	.	.	.	.	.	.	.	.	.	.	4cc\	.	4ee\	.	.	.	.	.
8G\J	.	8g\J	.	.	.	.	.	.	.	.	.	.	.	.	.	.	.	.	.	.	.	.	.	.	.	.	.
=2	=2	=2	=2	=2	=2	=2	=2	=2	=2	=2	=2	=2	=2	=2	=2	=2	=2	=2	=2	=2	=2	=2	=2	=2	=2	=2	=2
!	!	!	!	!	!LO:DY:a:t=pia&colon;	!	!	!	!	!	!	!	!	!	!	!	!	!	!	!	!	!	!	!	!	!	!
4C/	.	4c/	.	4ee\	p	4ccc\	.	4C/	-ctus	.	4c\	-tus	.	4g\	-ctus	.	4ee\	-tus	.	4cc\	.	4ee\	.	4ee\	.	4ccc\	.
4r	.	4r	.	4c/	.	8r	.	4r	.	.	4r	.	.	4r	.	.	4r	.	.	4r	.	4r	.	4r	.	4r	.
!	!	!	!	!	!	!	!LO:DY:a:t=p&colon;	!	!	!	!	!	!	!	!	!	!	!	!	!	!	!	!	!	!	!	!
.	.	.	.	.	.	8gg\L	p	.	.	.	.	.	.	.	.	.	.	.	.	.	.	.	.	.	.	.	.
4r	.	4r	.	4e/	.	8ee\	.	4r	.	.	4r	.	.	4r	.	.	4r	.	.	4r	.	4r	.	4r	.	4r	.
.	.	.	.	.	.	8cc\J	.	.	.	.	.	.	.	.	.	.	.	.	.	.	.	.	.	.	.	.	.
=3	=3	=3	=3	=3	=3	=3	=3	=3	=3	=3	=3	=3	=3	=3	=3	=3	=3	=3	=3	=3	=3	=3	=3	=3	=3	=3	=3
!	!	!LO:TX:a:t=2	!	!	!	!	!	!	!	!	!	!	!	!LO:TX:a:t=2	!	!	!	!	!	!	!	!LO:TX:a:t=2	!	!LO:TX:a:t=2	!	!	!
1.r	.	1.r	.	4f/	.	8a\L	.	1.r	.	.	1.r	.	.	1.r	.	.	1.r	.	.	1.r	.	1.r	.	1.r	.	1.r	.
.	.	.	.	.	.	8cc#X\	.	.	.	.	.	.	.	.	.	.	.	.	.	.	.	.	.	.	.	.	.
.	.	.	.	4r	.	8dd\	.	.	.	.	.	.	.	.	.	.	.	.	.	.	.	.	.	.	.	.	.
.	.	.	.	.	.	8ff\	.	.	.	.	.	.	.	.	.	.	.	.	.	.	.	.	.	.	.	.	.
.	.	.	.	4f#X/	.	8a\	.	.	.	.	.	.	.	.	.	.	.	.	.	.	.	.	.	.	.	.	.
.	.	.	.	.	.	8ccn\J	.	.	.	.	.	.	.	.	.	.	.	.	.	.	.	.	.	.	.	.	.
=4	=4	=4	=4	=4	=4	=4	=4	=4	=4	=4	=4	=4	=4	=4	=4	=4	=4	=4	=4	=4	=4	=4	=4	=4	=4	=4	=4
.	.	.	.	4g/	.	8b\L	.	.	.	.	.	.	.	.	.	.	.	.	.	.	.	.	.	.	.	.	.
.	.	.	.	.	.	8dd\	.	.	.	.	.	.	.	.	.	.	.	.	.	.	.	.	.	.	.	.	.
.	.	.	.	4r	.	8gg\	.	.	.	.	.	.	.	.	.	.	.	.	.	.	.	.	.	.	.	.	.
.	.	.	.	.	.	8bb\	.	.	.	.	.	.	.	.	.	.	.	.	.	.	.	.	.	.	.	.	.
.	.	.	.	4B/	.	8ddd\	.	.	.	.	.	.	.	.	.	.	.	.	.	.	.	.	.	.	.	.	.
.	.	.	.	.	.	8ff\J	.	.	.	.	.	.	.	.	.	.	.	.	.	.	.	.	.	.	.	.	.
=5	=5	=5	=5	=5	=5	=5	=5	=5	=5	=5	=5	=5	=5	=5	=5	=5	=5	=5	=5	=5	=5	=5	=5	=5	=5	=5	=5
*	*	*2\right	*	*	*	*	*	*	*	*	*	*	*	*	*	*	*	*	*	*	*	*	*	*	*	*	*
*	*	*tremolo	*	*	*	*	*	*	*	*	*	*	*	*	*	*	*	*	*	*	*	*	*	*	*	*	*
!LO:TX:t=P:problem=mixed beam	!	!	!	!LO:TX:t=P:problem=mixed beam	!	!	!LO:DY:a:t=for&colon;	!	!	!	!	!	!	!	!	!	!	!	!	!	!	!	!	!	!	!	!
8C/L	.	8g\L	.	8c/L	.	8ee\L	f	2.c\	San-	.	2.c\	Sanc-	.	2.g\	Sanc-	.	2.ee\	Sanc-	.	2cc\	.	2ee\	.	2g/	.	2ee\	.
8c\J	.	8g\	.	8cc\J	.	8ee\	.	.	.	.	.	.	.	.	.	.	.	.	.	.	.	.	.	.	.	.	.
*2\right	*	*	*	*	*	*	*	*	*	*	*	*	*	*	*	*	*	*	*	*	*	*	*	*	*	*	*
*tremolo	*	*	*	*	*	*	*	*	*	*	*	*	*	*	*	*	*	*	*	*	*	*	*	*	*	*	*
!	!	!	!	!	!LO:DY:a:t=f&colon;	!	!	!	!	!	!	!	!	!	!	!	!	!	!	!	!	!	!	!	!	!	!
8c\L	.	8g\	.	8cc\L	f	8ee\	.	.	.	.	.	.	.	.	.	.	.	.	.	.	.	.	.	.	.	.	.
8c\	.	8g\	.	8cc\	.	8ee\	.	.	.	.	.	.	.	.	.	.	.	.	.	.	.	.	.	.	.	.	.
8c\	.	8g\	.	8cc\	.	8ee\	.	.	.	.	.	.	.	.	.	.	.	.	.	4cc\	.	4ee\	.	4g/	.	4ee\	.
8c\J	.	8g\J	.	8cc\J	.	8ee\J	.	.	.	.	.	.	.	.	.	.	.	.	.	.	.	.	.	.	.	.	.
=6	=6	=6	=6	=6	=6	=6	=6	=6	=6	=6	=6	=6	=6	=6	=6	=6	=6	=6	=6	=6	=6	=6	=6	=6	=6	=6	=6
*	*	*	*	*	*	*tremolo	*	*	*	*	*	*	*	*	*	*	*	*	*	*tremolo	*	*tremolo	*	*	*	*	*
8B-X\L	.	8g\L	.	8cc\L	.	8ee\L	.	2.B-X\	-ctus	.	2.c\	-tus	.	2.g\	-tus	.	2.ee\	-tus	.	8cc\L	.	8ee\L	.	2cc\	.	2ee\	.
8B-X\	.	8g\	.	8cc\	.	8ee\	.	.	.	.	.	.	.	.	.	.	.	.	.	8cc\	.	8ee\	.	.	.	.	.
8B-X\	.	8g\	.	8cc\	.	8ee\	.	.	.	.	.	.	.	.	.	.	.	.	.	8cc\	.	8ee\	.	.	.	.	.
8B-X\	.	8g\	.	8cc\	.	8ee\	.	.	.	.	.	.	.	.	.	.	.	.	.	8cc\	.	8ee\	.	.	.	.	.
8B-X\	.	8g\	.	8cc\	.	8ee\	.	.	.	.	.	.	.	.	.	.	.	.	.	8cc\	.	8ee\	.	4cc\	.	4ee\	.
8B-X\J	.	8g\J	.	8cc\J	.	8ee\J	.	.	.	.	.	.	.	.	.	.	.	.	.	8cc\J	.	8ee\J	.	.	.	.	.
*	*	*	*	*	*	*	*	*	*	*	*	*	*	*	*	*	*	*	*	*Xtremolo	*	*Xtremolo	*	*	*	*	*
=7	=7	=7	=7	=7	=7	=7	=7	=7	=7	=7	=7	=7	=7	=7	=7	=7	=7	=7	=7	=7	=7	=7	=7	=7	=7	=7	=7
*	*	*	*	*tremolo	*	*	*	*	*	*	*	*	*	*	*	*	*	*	*	*	*	*	*	*	*	*	*
8A\L	.	8a\L	.	8cc\L	.	8ff\L	.	2A\	Do-	.	2c\	Do-	.	2f\	Do-	.	2ff\	Do-	.	8cc\	.	8ff\	.	2.cc\	.	2.ff\	.
8A\	.	8a\	.	8cc\	.	8ff\	.	.	.	.	.	.	.	.	.	.	.	.	.	8r	.	8r	.	.	.	.	.
8A\	.	8a\	.	8cc\	.	8ff\	.	.	.	.	.	.	.	.	.	.	.	.	.	4r	.	4r	.	.	.	.	.
8A\	.	8a\	.	8cc\	.	8ff\	.	.	.	.	.	.	.	.	.	.	.	.	.	.	.	.	.	.	.	.	.
8A\	.	8a\	.	8cc\	.	8ff\	.	4A\	-mi-	.	4c\	-mi-	.	4f\	-mi-	.	4ff\	-mi-	.	4r	.	4r	.	.	.	.	.
8A\J	.	8a\J	.	8cc\J	.	8ff\J	.	.	.	.	.	.	.	.	.	.	.	.	.	.	.	.	.	.	.	.	.
=8	=8	=8	=8	=8	=8	=8	=8	=8	=8	=8	=8	=8	=8	=8	=8	=8	=8	=8	=8	=8	=8	=8	=8	=8	=8	=8	=8
8E\L	.	8e\L	.	8cc\L	.	8gg\L	.	2.E\	-nus	.	2.c\	-nus	.	2.g\	-nus	.	2.cc\	-nus	.	8c/L	.	8cc\L	.	4cc\	.	4gg\	.
8E\	.	8e\	.	8cc\	.	8gg\	.	.	.	.	.	.	.	.	.	.	.	.	.	16c/L	.	16cc\L	.	.	.	.	.
.	.	.	.	.	.	.	.	.	.	.	.	.	.	.	.	.	.	.	.	16c/JJ	.	16cc\JJ	.	.	.	.	.
*	*	*	*	*	*	*	*	*	*	*	*	*	*	*	*	*	*	*	*	*tremolo	*	*tremolo	*	*	*	*	*
8E\	.	8e\	.	8cc\	.	8gg\	.	.	.	.	.	.	.	.	.	.	.	.	.	8c/L	.	8cc\L	.	4cc\	.	4gg\	.
8E\	.	8e\	.	8cc\	.	8gg\	.	.	.	.	.	.	.	.	.	.	.	.	.	8c/	.	8cc\	.	.	.	.	.
8E\	.	8e\	.	8cc\	.	8gg\	.	.	.	.	.	.	.	.	.	.	.	.	.	8c/	.	8cc\	.	4cc\	.	4gg\	.
*	*	*	*	*	*	*custos:c	*	*	*	*	*	*	*	*	*	*	*	*	*	*	*	*	*	*	*	*	*
8E\J	.	8e\J	.	8cc\J	.	8gg\J	.	.	.	.	.	.	.	.	.	.	.	.	.	8c/J	.	8cc\J	.	.	.	.	.
*	*	*	*	*	*	*Xtremolo	*	*	*	*	*	*	*	*	*	*	*	*	*	*Xtremolo	*	*Xtremolo	*	*	*	*	*
!	!	!	!	!	!	!LO:LB:g=original	!	!	!	!	!	!	!	!	!	!	!	!	!	!	!	!	!	!	!	!	!
=9	=9	=9	=9	=9	=9	=9	=9	=9	=9	=9	=9	=9	=9	=9	=9	=9	=9	=9	=9	=9	=9	=9	=9	=9	=9	=9	=9
8F\L	.	8f\L	.	8cc\L	.	8aa\L	.	2F\	De-	.	2c\	De-	.	2a\	De-	.	2cc\	De-	.	4c/	.	4cc\	.	2cc\	.	2aa\	.
8F\	.	8f\	.	8cc\	.	8aa\	.	.	.	.	.	.	.	.	.	.	.	.	.	.	.	.	.	.	.	.	.
8F\	.	8f\	.	8cc\	.	8aa\	.	.	.	.	.	.	.	.	.	.	.	.	.	4r	.	4r	.	.	.	.	.
8F\J	.	8f\J	.	8cc\	.	8aa\	.	.	.	.	.	.	.	.	.	.	.	.	.	.	.	.	.	.	.	.	.
*Xtremolo	*	*Xtremolo	*	*	*	*	*	*	*	*	*	*	*	*	*	*	*	*	*	*	*	*	*	*	*	*	*
8F#X\L	.	8d\L	.	8cc\	.	8aa\	.	4F#X\	-us	.	4d\	-us	.	4a\	-us	.	4cc\	-us	.	4r	.	4r	.	4cc\	.	4aa\	.
8F#\J	.	8d\J	.	8cc\J	.	8aa\J	.	.	.	.	.	.	.	.	.	.	.	.	.	.	.	.	.	.	.	.	.
!LO:LB:g=original	!	!	!	!LO:LB:g=original	!	!	!	!	!	!	!	!	!	!	!	!	!	!	!	!	!	!	!	!	!	!	!
=10	=10	=10	=10	=10	=10	=10	=10	=10	=10	=10	=10	=10	=10	=10	=10	=10	=10	=10	=10	=10	=10	=10	=10	=10	=10	=10	=10
*tremolo	*	*tremolo	*	*	*	*	*	*	*	*	*	*	*	*	*	*	*	*	*	*	*	*	*	*	*	*	*
8G\L	.	8d\L	.	8b\L	.	8gg\L	.	2G\	Sa-	.	2d\	Sa-	.	2g\	Sa-	.	2b\	Sa-	.	8g/L	.	8dd\L	.	4b\	.	4gg\	.
8G\	.	8d\	.	8b\	.	8gg\	.	.	.	.	.	.	.	.	.	.	.	.	.	16g/L	.	16dd\L	.	.	.	.	.
.	.	.	.	.	.	.	.	.	.	.	.	.	.	.	.	.	.	.	.	16g/JJ	.	16dd\JJ	.	.	.	.	.
*	*	*	*	*	*	*	*	*	*	*	*	*	*	*	*	*	*	*	*	*tremolo	*	*tremolo	*	*	*	*	*
8G\	.	8d\	.	8b\	.	8gg\	.	.	.	.	.	.	.	.	.	.	.	.	.	8g/L	.	8dd\L	.	4b\	.	4gg\	.
8G\J	.	8d\	.	8b\	.	8gg\	.	.	.	.	.	.	.	.	.	.	.	.	.	8g/	.	8dd\	.	.	.	.	.
*Xtremolo	*	*	*	*	*	*	*	*	*	*	*	*	*	*	*	*	*	*	*	*	*	*	*	*	*	*	*
*	*	*	*	*	*	*	*	*custos:E	*	*	*	*	*	*	*	*	*	*	*	*	*	*	*	*	*	*	*
8Fn\L	.	8d\	.	8b\	.	8gg\	.	4Fn\	-ba-	.	4d\	-ba-	.	4g\	-ba-	.	4b\	-ba-	.	8g/	.	8dd\	.	4b\	.	4gg\	.
8F\J	.	8d\J	.	8b\J	.	8gg\J	.	.	.	.	.	.	.	.	.	.	.	.	.	8g/J	.	8dd\J	.	.	.	.	.
*	*	*	*	*Xtremolo	*	*	*	*	*	*	*	*	*	*	*	*	*	*	*	*Xtremolo	*	*Xtremolo	*	*	*	*	*
!	!	!	!	!	!	!	!	!LO:LB:g=original	!	!	!	!	!	!	!	!	!	!	!	!	!	!	!	!	!	!	!
=11	=11	=11	=11	=11	=11	=11	=11	=11	=11	=11	=11	=11	=11	=11	=11	=11	=11	=11	=11	=11	=11	=11	=11	=11	=11	=11	=11
*tremolo	*	*	*	*	*	*	*	*	*	*	*	*	*	*	*	*	*	*	*	*	*	*	*	*	*	*	*
8E\L	.	8e\L	.	8cc\L	.	8gg\L	.	4E\	-oth	.	4e\	-oth	.	4g\	-oth	.	4cc\	-oth	.	4cc\	.	4ee\	.	2cc\	.	2gg\	.
8E\	.	8e\	.	8cc\	.	8gg\	.	.	.	.	.	.	.	.	.	.	.	.	.	.	.	.	.	.	.	.	.
8E\	.	8e\	.	8gg\	.	8ccc\	.	4E\	De-	.	4e\	sa(nc)-	.	4cc\	sanc-	.	4ee\	sa(nc)-	.	4cc\	.	4ee\	.	.	.	.	.
8E\	.	8e\	.	8gg\	.	8ccc\	.	.	.	.	.	.	.	.	.	.	.	.	.	.	.	.	.	.	.	.	.
8E\	.	8e\	.	8gg\	.	8ccc\	.	4E\	-us	.	4e\	-tus	.	4cc\	-t[us]	.	4ee\	-tus	.	4cc\	.	4ee\	.	4cc\	.	4gg\	.
8E\J	.	8e\J	.	8gg\J	.	8ccc\J	.	.	.	.	.	.	.	.	.	.	.	.	.	.	.	.	.	.	.	.	.
!	!	!	!	!	!	!	!	!	!	!	!	!	!	!	!LO:LB:g=original	!	!	!	!	!LO:LB:g=original	!	!	!	!	!	!	!
=12	=12	=12	=12	=12	=12	=12	=12	=12	=12	=12	=12	=12	=12	=12	=12	=12	=12	=12	=12	=12	=12	=12	=12	=12	=12	=12	=12
*	*	*	*	*tremolo	*	*	*	*	*	*	*	*	*	*	*	*	*	*ij	*	*	*	*	*	*	*	*	*
8D/L	.	8d\L	.	8ff\L	.	4ccc\	.	2D/	Sa-	.	2d\	Do-	.	4cc\	sanc-	.	2ff\	sanc-	.	4dd\	.	4ff\	.	4cc\	.	2ff\	.
8D/	.	8d\	.	8ff\	.	.	.	.	.	.	.	.	.	.	.	.	.	.	.	.	.	.	.	.	.	.	.
8D/	.	8d\	.	8ff\	.	8bb\L	.	.	.	.	.	.	.	8b\L	.	.	.	.	.	4r	.	4r	.	8b\L	.	.	.
8D/	.	8d\	.	8ff\	.	8aa\J	.	.	.	.	.	.	.	8a\J	.	.	.	.	.	.	.	.	.	8a\J	.	.	.
8D/	.	8d\	.	8ff\	.	4bb\	.	4D/	-ba-	.	4d\	-mi-	.	4b\	-tus	.	4ff\	-tus	.	4r	.	4r	.	4b\	.	4ff\	.
*	*	*	*	*	*	*	*	*	*	*	*	*	*	*	*	*	*	*Xij	*	*	*	*	*	*	*	*	*
8D/J	.	8d\J	.	8ff\J	.	.	.	.	.	.	.	.	.	.	.	.	.	.	.	.	.	.	.	.	.	.	.
*Xtremolo	*	*	*	*	*	*	*	*	*	*	*	*	*	*	*	*	*	*	*	*	*	*	*	*	*	*	*
!	!	!LO:LB:g=original	!	!	!	!	!	!	!	!	!	!	!	!	!	!	!LO:LB:g=original	!	!	!	!	!	!	!	!	!	!
=13	=13	=13	=13	=13	=13	=13	=13	=13	=13	=13	=13	=13	=13	=13	=13	=13	=13	=13	=13	=13	=13	=13	=13	=13	=13	=13	=13
!LO:TX:t=P:problem=mixed beam	!	!	!	!	!	!	!	!	!	!	!	!	!	!	!	!	!	!	!	!	!	!	!	!	!	!	!
8C/L	.	8c\L	.	8ee\L	.	4ccc\	.	4C/	-oth	.	4c\	-nuſ	.	4cc\	De-	.	4ee\	Do-	.	8cc\L	.	8ee\L	.	4cc\	.	4ee\	.
8c\J	.	8c\	.	8ee\	.	.	.	.	.	.	.	.	.	.	.	.	.	.	.	16cc\L	.	16ee\L	.	.	.	.	.
.	.	.	.	.	.	.	.	.	.	.	.	.	.	.	.	.	.	.	.	16cc\JJ	.	16ee\JJ	.	.	.	.	.
*tremolo	*	*	*	*	*	*	*	*	*	*	*	*ij	*	*	*	*	*	*	*	*tremolo	*	*tremolo	*	*	*	*	*
8c\L	.	8c\	.	8ee\	.	8aa\L	.	4c\	Do-	.	4c\	Do-	.	4a\	-us	.	4ee\	-mi-	.	8cc\L	.	8ee\L	.	4ee\	.	4aa\	.
8c\	.	8c\	.	8ee\	.	8aa\	.	.	.	.	.	.	.	.	.	.	.	.	.	8cc\	.	8ee\	.	.	.	.	.
*	*	*	*	*	*	*	*	*	*	*	*	*	*	*	*ij	*	*	*	*	*	*	*	*	*	*	*	*
8c\	.	8c\	.	8ee\	.	8aa\	.	8c\	-mi-	.	8c\	-mi-	.	8a\	De-	.	4ee\	-nus	.	8cc\	.	8ee\	.	4ee\	.	4aa\	.
8c\J	.	8c\J	.	8ee\J	.	8aa\J	.	8c\	-nus	.	8c\	-nuſ	.	8a\	-us	.	.	.	.	8cc\J	.	8ee\J	.	.	.	.	.
*	*	*	*	*	*	*	*	*	*	*	*	*Xij	*	*	*	*	*	*	*	*Xtremolo	*	*Xtremolo	*	*	*	*	*
!	!	!	!	!	!	!	!	!	!	!	!LO:PB:g=original	!	!	!	!	!	!	!	!	!	!	!LO:LB:g=original	!	!	!	!	!
=14	=14	=14	=14	=14	=14	=14	=14	=14	=14	=14	=14	=14	=14	=14	=14	=14	=14	=14	=14	=14	=14	=14	=14	=14	=14	=14	=14
8c\L	.	8a\L	.	8dd\L	.	8ff#X\L	.	2c\	De-	.	2A\	De-	.	2f#X\	De-	.	2dd\	De-	.	8dd\L	.	8dd\L	.	2dd\	.	2ff#X\	.
8c\	.	8a\	.	8dd\	.	8ff#\	.	.	.	.	.	.	.	.	.	.	.	.	.	8dd\	.	16dd\L	.	.	.	.	.
.	.	.	.	.	.	.	.	.	.	.	.	.	.	.	.	.	.	.	.	.	.	16dd\JJ	.	.	.	.	.
*	*	*	*	*	*	*	*	*	*	*	*	*	*	*	*	*	*	*	*	*	*	*tremolo	*	*	*	*	*
8c\	.	8a\	.	8dd\	.	8ff#\	.	.	.	.	.	.	.	.	.	.	.	.	.	8dd\	.	8dd\L	.	.	.	.	.
8c\J	.	8a\J	.	8dd\	.	8ff#\	.	.	.	.	.	.	.	.	.	.	.	.	.	8dd\	.	8dd\	.	.	.	.	.
*Xtremolo	*	*Xtremolo	*	*	*	*	*	*	*	*	*	*	*	*	*	*	*	*	*	*	*	*	*	*	*	*	*
8B\L	.	8g\L	.	8dd\	.	8gg\	.	4B\	-us	.	4d\	-us	.	4g\	-us	.	4dd\	-us	.	8g\	.	8dd\	.	4dd\	.	4gg\	.
*	*	*	*	*	*	*	*	*	*	*	*	*	*	*	*Xij	*	*	*	*	*	*	*	*	*	*	*	*
8B\J	.	8g\J	.	8dd\J	.	8gg\J	.	.	.	.	.	.	.	.	.	.	.	.	.	8g\J	.	8dd\J	.	.	.	.	.
*	*	*	*	*Xtremolo	*	*	*	*	*	*	*	*	*	*	*	*	*	*	*	*	*	*Xtremolo	*	*	*	*	*
=15	=15	=15	=15	=15	=15	=15	=15	=15	=15	=15	=15	=15	=15	=15	=15	=15	=15	=15	=15	=15	=15	=15	=15	=15	=15	=15	=15
*tremolo	*	*	*	*	*	*	*	*	*	*	*	*	*	*	*	*	*	*	*	*	*	*	*	*	*	*	*
*	*	*	*	*	*	*	*	*	*	*	*	*	*	*	*	*	*	*	*	*	*	*	*	*custos:b	*	*	*
8A\L	.	2a\	.	2.cc\	.	4gg\	.	2A\	Sa-	.	2d\	Sa-	.	4g\	Sa-	.	2cc\	Sa-	.	4dd\	.	4dd\	.	2.cc\	.	4gg\	.
8A\	.	.	.	.	.	.	.	.	.	.	.	.	.	.	.	.	.	.	.	.	.	.	.	.	.	.	.
!	!	!	!	!	!	!	!	!	!	!	!	!	!	!	!	!	!	!	!	!	!	!	!	!	!	!LO:SIC:v:s=8ff#\L	!
8A\	.	.	.	.	.	8ff#X\L	.	.	.	.	.	.	.	8f#X\L	.	.	.	.	.	4r	.	4r	.	.	.	8ff\L	.
8A\	.	.	.	.	.	8ee\J	.	.	.	.	.	.	.	8e\J	.	.	.	.	.	.	.	.	.	.	.	8ee\J	.
!	!	!	!	!	!	!	!	!	!	!	!	!	!	!	!	!	!	!	!	!	!	!	!	!	!	!LO:SIC:v:s=4ff#\	!
8A\	.	4a\	.	.	.	4ff#\	.	4A\	-ba-	.	4d\	-ba-	.	4f#\	-ba-	.	4cc\	-ba-	.	4dd\	.	4dd\	.	.	.	4ff\	.
8A\J	.	.	.	.	.	.	.	.	.	.	.	.	.	.	.	.	.	.	.	.	.	.	.	.	.	.	.
*Xtremolo	*	*	*	*	*	*	*	*	*	*	*	*	*	*	*	*	*	*	*	*	*	*	*	*	*	*	*
!	!	!	!	!	!	!	!	!	!	!	!	!	!	!	!	!	!	!	!	!	!	!	!	!LO:LB:g=original	!	!LO:LB:g=original	!
=16	=16	=16	=16	=16	=16	=16	=16	=16	=16	=16	=16	=16	=16	=16	=16	=16	=16	=16	=16	=16	=16	=16	=16	=16	=16	=16	=16
!	!	!	!	!	!	!	!LO:DY:a:t=p&colon;	!	!	!	!	!	!	!	!	!	!	!	!	!	!	!	!	!	!	!	!
4G\	.	4g\	.	4b\	.	8gg\L	p	4G\	-oth.	.	4d\	-oth.	.	4g\	-oth	.	4b\	-oth	.	4g/	.	4dd\	.	4b/	.	4gg\	.
.	.	.	.	.	.	8dd\	.	.	.	.	.	.	.	.	.	.	.	.	.	.	.	.	.	.	.	.	.
4r	.	4r	.	4r	.	8bb\	.	4r	.	.	4r	.	.	4r	.	.	4r	.	.	4r	.	4r	.	4r	.	4r	.
.	.	.	.	.	.	8gg\	.	.	.	.	.	.	.	.	.	.	.	.	.	.	.	.	.	.	.	.	.
4r	.	4r	.	4r	.	8ddd\	.	4r	.	.	4r	.	.	4r	.	.	4r	.	.	4r	.	4r	.	4r	.	4r	.
.	.	.	.	.	.	8bb\J	.	.	.	.	.	.	.	.	.	.	.	.	.	.	.	.	.	.	.	.	.
=17	=17	=17	=17	=17	=17	=17	=17	=17	=17	=17	=17	=17	=17	=17	=17	=17	=17	=17	=17	=17	=17	=17	=17	=17	=17	=17	=17
!	!LO:DY:a:t=p&colon;	!	!LO:DY:a:t=pia&colon;	!	!LO:DY:a:t=pia&colon;	!	!	!LO:TX:a:t=2	!	!	!	!	!	!LO:TX:a:t=2	!	!	!	!	!	!	!	!LO:TX:a:t=2	!	!	!	!	!
!	!	!	!	!	!	!	!	!	!	!	!	!	!	!LO:TX:b:i:t=Pleni	!	!	!	!	!	!	!	!	!	!	!	!	!
4GG/	p	4d\	p	4B/	p	8gg\L	.	1.r	.	.	1.r;>	.	.	1.r	.	.	1.r	.	.	1.r	.	1.r	.	1.r	.	1.r;>	.
.	.	.	.	.	.	8dd\	.	.	.	.	.	.	.	.	.	.	.	.	.	.	.	.	.	.	.	.	.
4GG/	.	4d\	.	4B/	.	8b\	.	.	.	.	.	.	.	.	.	.	.	.	.	.	.	.	.	.	.	.	.
.	.	.	.	.	.	8g\J	.	.	.	.	.	.	.	.	.	.	.	.	.	.	.	.	.	.	.	.	.
4GG/	.	4d\	.	4B/	.	8d/L	.	.	.	.	.	.	.	.	.	.	.	.	.	.	.	.	.	.	.	.	.
.	.	.	.	.	.	8B/J	.	.	.	.	.	.	.	.	.	.	.	.	.	.	.	.	.	.	.	.	.
=18	=18	=18	=18	=18	=18	=18	=18	=18	=18	=18	=18	=18	=18	=18	=18	=18	=18	=18	=18	=18	=18	=18	=18	=18	=18	=18	=18
2GG;>/	.	2d;>\	.	4B;>/	.	2.G;/	.	.	.	.	.	.	.	.	.	.	.	.	.	.	.	.	.	.	.	.	.
.	.	.	.	4r	.	.	.	.	.	.	.	.	.	.	.	.	.	.	.	.	.	.	.	.	.	.	.
4r	.	4r	.	4r	.	.	.	.	.	.	.	.	.	.	.	.	.	.	.	.	.	.	.	.	.	.	.
!LO:LB:g=original	!	!LO:LB:g=original	!	!LO:LB:g=original	!	!LO:LB:g=original	!	!LO:LB:g=original	!	!	!	!	!	!LO:PB:g=original	!	!	!	!	!	!	!	!	!	!	!	!	!
=19||	=19||	=19||	=19||	=19||	=19||	=19||	=19||	=19||	=19||	=19||	=19||	=19||	=19||	=19||	=19||	=19||	=19||	=19||	=19||	=19||	=19||	=19||	=19||	=19||	=19||	=19||	=19||
!LO:TX:t=Pleni:rj	!	!LO:TX:t=Pleni:rj	!	!LO:TX:t=Pleni:rj	!	!LO:TX:t=Pleni:rj	!	!	!	!	!	!	!	!	!	!	!	!	!	!LO:TX:b:i:t=Pleni.	!	!LO:TX:b:t=Pleni.	!	!LO:TX:b:t=Pleni.	!	!LO:TX:b:t=Pleni	!
!LO:TX:a:t=allo.	!LO:DY:a:t=f&colon;	!LO:TX:a:t=allo.	!LO:DY:a:t=for&colon;	!LO:TX:a:t=allo.	!LO:DY:a:t=for&colon;	!LO:TX:a:t=allo.	!LO:DY:a:t=for.	!LO:TX:a:t=allo.	!	!	!LO:TX:a:t=allo.	!	!	!LO:TX:a:t=allo.	!	!	!LO:TX:a:t=allo.	!	!	!LO:TX:a:t=allo.	!	!LO:TX:a:t=allo.	!	!LO:TX:a:t=allo.	!	!LO:TX:a:t=allo.	!
4c\	f	4g\	f	4G/ 4e	f	4e/ 4cc	f	4C/	Ple-	.	4e\	Ple-	.	4g\	Ple-	.	4cc\	Ple-	.	8e/L	.	8cc\L	.	4e/	.	4cc\	.
.	.	.	.	.	.	.	.	.	.	.	.	.	.	.	.	.	.	.	.	16e/L	.	16cc\L	.	.	.	.	.
.	.	.	.	.	.	.	.	.	.	.	.	.	.	.	.	.	.	.	.	16e/JJ	.	16cc\JJ	.	.	.	.	.
*	*	*	*	*	*	*	*	*	*	*	*	*	*	*	*	*	*	*	*	*tremolo	*	*tremolo	*	*	*	*	*
4c\	.	4g\	.	4G/ 4e	.	4e/ 4cc	.	4C/	-ni	.	4e\	-ni	.	4g\	-ni	.	4cc\	-ni	.	8e/L	.	8cc\L	.	4e/	.	4cc\	.
.	.	.	.	.	.	.	.	.	.	.	.	.	.	.	.	.	.	.	.	8e/	.	8cc\	.	.	.	.	.
4c\	.	4g\	.	4G/ 4e	.	4e/ 4cc	.	4C/	ſunt	.	4e\	ſunt	.	4g\	ſunt	.	4cc\	s(u)nt	.	8e/	.	8cc\	.	4e/	.	4cc\	.
.	.	.	.	.	.	.	.	.	.	.	.	.	.	.	.	.	.	.	.	8e/J	.	8cc\J	.	.	.	.	.
*	*	*	*	*	*	*	*	*	*	*	*	*	*	*	*	*	*	*	*	*Xtremolo	*	*Xtremolo	*	*	*	*	*
=20	=20	=20	=20	=20	=20	=20	=20	=20	=20	=20	=20	=20	=20	=20	=20	=20	=20	=20	=20	=20	=20	=20	=20	=20	=20	=20	=20
4c\	.	4g\	.	4G/ 4e	.	4e/ 4cc	.	4C/	cae-	.	4e\	cae-	.	4g\	cae-	.	4cc\	cae-	.	4e/	.	4cc\	.	4e/	.	4cc\	.
4C/	.	4g\	.	4G/ 4e	.	8cc\L	.	4C/	-li	.	4e\	-li	.	4g\	-li	.	4cc\	-li	.	4e/	.	4cc\	.	4e/	.	4cc\	.
.	.	.	.	.	.	16dd\L	.	.	.	.	.	.	.	.	.	.	.	.	.	.	.	.	.	.	.	.	.
.	.	.	.	.	.	16ee\JJ	.	.	.	.	.	.	.	.	.	.	.	.	.	.	.	.	.	.	.	.	.
4r	.	4r	.	4r	.	16ff\LL	.	4r	.	.	4r	.	.	4r	.	.	4r	.	.	4r	.	4r	.	4r	.	4r	.
.	.	.	.	.	.	16gg\	.	.	.	.	.	.	.	.	.	.	.	.	.	.	.	.	.	.	.	.	.
.	.	.	.	.	.	16aa\	.	.	.	.	.	.	.	.	.	.	.	.	.	.	.	.	.	.	.	.	.
.	.	.	.	.	.	16bb\JJ	.	.	.	.	.	.	.	.	.	.	.	.	.	.	.	.	.	.	.	.	.
=21	=21	=21	=21	=21	=21	=21	=21	=21	=21	=21	=21	=21	=21	=21	=21	=21	=21	=21	=21	=21	=21	=21	=21	=21	=21	=21	=21
*	*	*	*	*	*	*^	*	*	*	*	*	*	*	*	*	*	*	*	*	*	*	*	*	*	*	*	*
*	*	*	*	*	*	*	*	*	*	*ij	*	*	*ij	*	*	*ij	*	*	*	*	*	*	*	*	*	*	*	*
4c\	.	4g\	.	4G/ 4e 4cc	.	4ccc\	4ryy	.	4c\	Ple-	.	4c\	Ple-	.	4g\	Ple-	.	4ee\	Ple-	.	8cc\L	.	8ee\L	.	4cc\	.	4ee\	.
.	.	.	.	.	.	.	.	.	.	.	.	.	.	.	.	.	.	.	.	.	16cc\L	.	16ee\L	.	.	.	.	.
.	.	.	.	.	.	.	.	.	.	.	.	.	.	.	.	.	.	.	.	.	16cc\JJ	.	16ee\JJ	.	.	.	.	.
*	*	*	*	*	*	*	*	*	*	*	*	*	*	*	*	*	*	*	*	*	*tremolo	*	*tremolo	*	*	*	*	*
4c\	.	4g\	.	4G/ 4e 4cc	.	4cc/ 4ee	4g\	.	4c\	-ni	.	4c\	-ni	.	4g\	-ni	.	4ee\	-ni	.	8cc\L	.	8ee\L	.	4cc\	.	4ee\	.
.	.	.	.	.	.	.	.	.	.	.	.	.	.	.	.	.	.	.	.	.	8cc\	.	8ee\	.	.	.	.	.
4c\	.	4g\	.	4G/ 4e 4cc	.	4cc/ 4ee	4g\	.	4c\	ſunt	.	4c\	ſunt	.	4g\	ſunt	.	4ee\	sunt	.	8cc\	.	8ee\	.	4cc\	.	4ee\	.
.	.	.	.	.	.	.	.	.	.	.	.	.	.	.	.	.	.	.	.	.	8cc\J	.	8ee\J	.	.	.	.	.
*	*	*	*	*	*	*	*	*	*	*	*	*	*	*	*	*	*	*	*	*	*Xtremolo	*	*Xtremolo	*	*	*	*	*
=22	=22	=22	=22	=22	=22	=22	=22	=22	=22	=22	=22	=22	=22	=22	=22	=22	=22	=22	=22	=22	=22	=22	=22	=22	=22	=22	=22	=22
4c\	.	4g\	.	4G/ 4e 4cc	.	4cc/ 4ee	4g\	.	4c\	cae-	.	4c\	cae-	.	4g\	cae-	.	4ee\	cae-	.	4cc\	.	4ee\	.	4cc\	.	4ee\	.
4C/	.	4g\	.	4G/ 4e 4cc	.	8ee\L	2ryy	.	4C/	-li	.	4c\	-li	.	4g\	-li	.	4ee\	-li	.	4cc\	.	4ee\	.	4cc\	.	4ee\	.
*	*	*	*	*	*	*	*	*	*	*Xij	*	*	*Xij	*	*	*Xij	*	*	*	*	*	*	*	*	*	*	*	*
.	.	.	.	.	.	16ff\L	.	.	.	.	.	.	.	.	.	.	.	.	.	.	.	.	.	.	.	.	.	.
.	.	.	.	.	.	16gg\JJ	.	.	.	.	.	.	.	.	.	.	.	.	.	.	.	.	.	.	.	.	.	.
4r	.	4r	.	4r	.	16aa\LL	.	.	4r	.	.	4r	.	.	4r	.	.	4r	.	.	4r	.	4r	.	4r	.	4r	.
.	.	.	.	.	.	16bb\	.	.	.	.	.	.	.	.	.	.	.	.	.	.	.	.	.	.	.	.	.	.
.	.	.	.	.	.	16ccc\	.	.	.	.	.	.	.	.	.	.	.	.	.	.	.	.	.	.	.	.	.	.
.	.	.	.	.	.	16ddd\JJ	.	.	.	.	.	.	.	.	.	.	.	.	.	.	.	.	.	.	.	.	.	.
*	*	*	*	*	*	*v	*v	*	*	*	*	*	*	*	*	*	*	*	*	*	*	*	*	*	*	*	*	*
=23	=23	=23	=23	=23	=23	=23	=23	=23	=23	=23	=23	=23	=23	=23	=23	=23	=23	=23	=23	=23	=23	=23	=23	=23	=23	=23	=23
2.r	.	2.r	.	2.r	.	8eee\L	.	2.r	.	.	2.r	.	.	2.r	.	.	2.r	.	.	2.r	.	2.r	.	2.r	.	2.r	.
.	.	.	.	.	.	8ccc\	.	.	.	.	.	.	.	.	.	.	.	.	.	.	.	.	.	.	.	.	.
.	.	.	.	.	.	8gg\	.	.	.	.	.	.	.	.	.	.	.	.	.	.	.	.	.	.	.	.	.
.	.	.	.	.	.	8ccc\	.	.	.	.	.	.	.	.	.	.	.	.	.	.	.	.	.	.	.	.	.
.	.	.	.	.	.	8gg\	.	.	.	.	.	.	.	.	.	.	.	.	.	.	.	.	.	.	.	.	.
.	.	.	.	.	.	8ee\J	.	.	.	.	.	.	.	.	.	.	.	.	.	.	.	.	.	.	.	.	.
!	!	!	!	!	!	!	!	!	!	!	!	!	!	!	!	!	!LO:LB:g=original	!	!	!	!	!	!	!	!	!	!
=24	=24	=24	=24	=24	=24	=24	=24	=24	=24	=24	=24	=24	=24	=24	=24	=24	=24	=24	=24	=24	=24	=24	=24	=24	=24	=24	=24
8E\L	.	8g\L	.	16c/LL	.	4cc\	.	4E\	Cae-	.	4c\	Cae-	.	4g\	cae-	.	4b-X\	Cae-	.	8c/L	.	8cc\L	.	2b-X/	.	2gg\	.
.	.	.	.	16c/	.	.	.	.	.	.	.	.	.	.	.	.	.	.	.	.	.	.	.	.	.	.	.
8C\	.	8e\	.	16c/	.	.	.	.	.	.	.	.	.	.	.	.	.	.	.	16c/L	.	16cc\L	.	.	.	.	.
.	.	.	.	16c/JJ	.	.	.	.	.	.	.	.	.	.	.	.	.	.	.	16c/JJ	.	16cc\JJ	.	.	.	.	.
*	*	*	*	*tremolo	*	*Xtuplet	*	*	*	*	*	*	*	*	*	*	*	*	*	*tremolo	*	*tremolo	*	*	*	*	*
8E\	.	8g\	.	16c/LL	.	12gg\L	.	4E\	-li	.	4c\	-li	.	4g\	-li	.	4b-\	-li	.	8c/L	.	8cc\L	.	.	.	.	.
.	.	.	.	16c/	.	.	.	.	.	.	.	.	.	.	.	.	.	.	.	.	.	.	.	.	.	.	.
.	.	.	.	.	.	12ff\	.	.	.	.	.	.	.	.	.	.	.	.	.	.	.	.	.	.	.	.	.
8C\	.	8e\	.	16c/	.	.	.	.	.	.	.	.	.	.	.	.	.	.	.	8c/	.	8cc\	.	.	.	.	.
.	.	.	.	.	.	12ee\J	.	.	.	.	.	.	.	.	.	.	.	.	.	.	.	.	.	.	.	.	.
.	.	.	.	16c/	.	.	.	.	.	.	.	.	.	.	.	.	.	.	.	.	.	.	.	.	.	.	.
8E\	.	8g\	.	16c/	.	12dd\L	.	4E\	et	.	4c\	et	.	4g\	et	.	4b-\	et	.	8c/	.	8cc\	.	4g/	.	4b-X/	.
.	.	.	.	16c/	.	.	.	.	.	.	.	.	.	.	.	.	.	.	.	.	.	.	.	.	.	.	.
.	.	.	.	.	.	12cc\	.	.	.	.	.	.	.	.	.	.	.	.	.	.	.	.	.	.	.	.	.
8C\J	.	8e\J	.	16c/	.	.	.	.	.	.	.	.	.	.	.	.	.	.	.	8c/J	.	8cc\J	.	.	.	.	.
.	.	.	.	.	.	12b-X\J	.	.	.	.	.	.	.	.	.	.	.	.	.	.	.	.	.	.	.	.	.
.	.	.	.	16c/JJ	.	.	.	.	.	.	.	.	.	.	.	.	.	.	.	.	.	.	.	.	.	.	.
*	*	*	*	*	*	*	*	*	*	*	*	*	*	*	*	*	*	*	*	*Xtremolo	*	*Xtremolo	*	*	*	*	*
!	!	!	!	!	!	!	!	!	!	!	!	!	!	!	!	!	!	!	!	!LO:LB:g=original	!	!	!	!	!	!	!
=25	=25	=25	=25	=25	=25	=25	=25	=25	=25	=25	=25	=25	=25	=25	=25	=25	=25	=25	=25	=25	=25	=25	=25	=25	=25	=25	=25
*tremolo	*	*	*	*	*	*	*	*	*	*	*	*	*	*	*	*	*	*	*	*	*	*	*	*	*	*	*
8F\L	.	8f\L	.	16c/LL	.	8a/L	.	2F\	ter-	.	2c\	ter-	.	2f\	ter-	.	2a\	ter-	.	4c/	.	4cc\	.	2f/	.	2a/	.
.	.	.	.	16c/	.	.	.	.	.	.	.	.	.	.	.	.	.	.	.	.	.	.	.	.	.	.	.
8C\	.	8a\	.	16c/	.	8f/	.	.	.	.	.	.	.	.	.	.	.	.	.	.	.	.	.	.	.	.	.
.	.	.	.	16c/	.	.	.	.	.	.	.	.	.	.	.	.	.	.	.	.	.	.	.	.	.	.	.
8F\	.	8f\	.	16c/	.	8cc/	.	.	.	.	.	.	.	.	.	.	.	.	.	4c/	.	4cc\	.	.	.	.	.
.	.	.	.	16c/	.	.	.	.	.	.	.	.	.	.	.	.	.	.	.	.	.	.	.	.	.	.	.
8C\	.	8a\	.	16c/	.	8a/	.	.	.	.	.	.	.	.	.	.	.	.	.	.	.	.	.	.	.	.	.
.	.	.	.	16c/	.	.	.	.	.	.	.	.	.	.	.	.	.	.	.	.	.	.	.	.	.	.	.
8F\	.	8f\	.	16c/	.	8ff/	.	4F\	-ra	.	4c\	-ra	.	4f\	-ra	.	4a\	-ra	.	4r	.	4r	.	4a/	.	4ff\	.
.	.	.	.	16c/	.	.	.	.	.	.	.	.	.	.	.	.	.	.	.	.	.	.	.	.	.	.	.
8C\J	.	8a\J	.	16c/	.	8cc/J	.	.	.	.	.	.	.	.	.	.	.	.	.	.	.	.	.	.	.	.	.
.	.	.	.	16c/JJ	.	.	.	.	.	.	.	.	.	.	.	.	.	.	.	.	.	.	.	.	.	.	.
!	!	!	!	!	!	!	!	!	!	!	!LO:LB:g=original	!	!	!	!	!	!	!	!	!	!	!	!	!	!	!	!
=26	=26	=26	=26	=26	=26	=26	=26	=26	=26	=26	=26	=26	=26	=26	=26	=26	=26	=26	=26	=26	=26	=26	=26	=26	=26	=26	=26
*	*	*	*	*	*	*	*	*	*ij	*	*	*ij	*	*	*ij	*	*	*	*	*	*	*	*	*	*	*	*
8F#X\L	.	8a\L	.	16d/LL	.	4aa\	.	4F#X\	cae-	.	4d\	Cae-	.	4a\	cae-	.	4cc\	cae-	.	8dd\L	.	8dd\L	.	2cc/	.	2aa\	.
.	.	.	.	16d/	.	.	.	.	.	.	.	.	.	.	.	.	.	.	.	.	.	.	.	.	.	.	.
8D\	.	8f#X\	.	16d/	.	.	.	.	.	.	.	.	.	.	.	.	.	.	.	16dd\L	.	16dd\L	.	.	.	.	.
.	.	.	.	16d/	.	.	.	.	.	.	.	.	.	.	.	.	.	.	.	16dd\JJ	.	16dd\JJ	.	.	.	.	.
!	!	!	!	!	!	!	!	!LO:LB:g=original	!	!	!	!	!	!	!	!	!	!	!	!	!	!	!	!	!	!	!
=-	=-	=-	=-	=-	=-	=-	=-	=-	=-	=-	=-	=-	=-	=-	=-	=-	=-	=-	=-	=-	=-	=-	=-	=-	=-	=-	=-
*	*	*	*	*	*	*	*	*	*	*	*	*	*	*	*	*	*	*	*	*tremolo	*	*tremolo	*	*	*	*	*
8F#\	.	8a\	.	16d/	.	12aa\L	.	4F#X\	-li	.	4d\	-li	.	4a\	-li	.	4cc\	-li	.	8dd\L	.	8dd\L	.	.	.	.	.
.	.	.	.	16d/	.	.	.	.	.	.	.	.	.	.	.	.	.	.	.	.	.	.	.	.	.	.	.
.	.	.	.	.	.	12gg\	.	.	.	.	.	.	.	.	.	.	.	.	.	.	.	.	.	.	.	.	.
8D\	.	8f#\	.	16d/	.	.	.	.	.	.	.	.	.	.	.	.	.	.	.	8dd\	.	8dd\	.	.	.	.	.
.	.	.	.	.	.	12ff#X\J	.	.	.	.	.	.	.	.	.	.	.	.	.	.	.	.	.	.	.	.	.
.	.	.	.	16d/	.	.	.	.	.	.	.	.	.	.	.	.	.	.	.	.	.	.	.	.	.	.	.
8F#\	.	8a\	.	16d/	.	12ee\L	.	4F#\	et	.	4d\	et	.	4a\	et	.	4cc\	et	.	8dd\	.	8dd\	.	4a/	.	4cc\	.
.	.	.	.	16d/	.	.	.	.	.	.	.	.	.	.	.	.	.	.	.	.	.	.	.	.	.	.	.
.	.	.	.	.	.	12dd\	.	.	.	.	.	.	.	.	.	.	.	.	.	.	.	.	.	.	.	.	.
8D\J	.	8f#\J	.	16d/	.	.	.	.	.	.	.	.	.	.	.	.	.	.	.	8dd\J	.	8dd\J	.	.	.	.	.
.	.	.	.	.	.	12cc\J	.	.	.	.	.	.	.	.	.	.	.	.	.	.	.	.	.	.	.	.	.
.	.	.	.	16d/JJ	.	.	.	.	.	.	.	.	.	.	.	.	.	.	.	.	.	.	.	.	.	.	.
*	*	*	*	*	*	*	*	*	*	*	*	*	*	*	*	*	*	*	*	*Xtremolo	*	*Xtremolo	*	*	*	*	*
!	!	!	!	!	!	!LO:LB:g=original	!	!	!	!	!	!	!	!	!	!	!	!	!	!	!	!	!	!	!	!	!
=27	=27	=27	=27	=27	=27	=27	=27	=27	=27	=27	=27	=27	=27	=27	=27	=27	=27	=27	=27	=27	=27	=27	=27	=27	=27	=27	=27
8G\L	.	8g\L	.	16d/LL	.	8b\L	.	2G\	ter-	.	2d\	ter-	.	2g\	ter-	.	2bn\	ter-	.	4g/	.	4dd\	.	2g/	.	2bn\	.
.	.	.	.	16d/	.	.	.	.	.	.	.	.	.	.	.	.	.	.	.	.	.	.	.	.	.	.	.
8D\	.	8b\	.	16d/	.	8dd\	.	.	.	.	.	.	.	.	.	.	.	.	.	.	.	.	.	.	.	.	.
.	.	.	.	16d/	.	.	.	.	.	.	.	.	.	.	.	.	.	.	.	.	.	.	.	.	.	.	.
8G\	.	8g\	.	16d/	.	8gg\	.	.	.	.	.	.	.	.	.	.	.	.	.	4r	.	4r	.	.	.	.	.
.	.	.	.	16d/	.	.	.	.	.	.	.	.	.	.	.	.	.	.	.	.	.	.	.	.	.	.	.
8D\	.	8b\	.	16d/	.	8dd\	.	.	.	.	.	.	.	.	.	.	.	.	.	.	.	.	.	.	.	.	.
.	.	.	.	16d/	.	.	.	.	.	.	.	.	.	.	.	.	.	.	.	.	.	.	.	.	.	.	.
8G\	.	8g\	.	16d/	.	8gg\	.	4G\	-ra	.	4d\	-ra	.	4g\	-ra	.	4b\	-ra	.	4r	.	4r	.	4bn/	.	4gg\	.
*	*	*	*	*	*	*	*	*	*Xij	*	*	*Xij	*	*	*Xij	*	*	*	*	*	*	*	*	*	*	*	*
.	.	.	.	16d/	.	.	.	.	.	.	.	.	.	.	.	.	.	.	.	.	.	.	.	.	.	.	.
8D\J	.	8b\J	.	16d/	.	8bb\J	.	.	.	.	.	.	.	.	.	.	.	.	.	.	.	.	.	.	.	.	.
.	.	.	.	16d/JJ	.	.	.	.	.	.	.	.	.	.	.	.	.	.	.	.	.	.	.	.	.	.	.
*Xtremolo	*	*	*	*	*	*	*	*	*	*	*	*	*	*	*	*	*	*	*	*	*	*	*	*	*	*	*
!LO:LB:g=original	!	!	!	!	!	!	!	!	!	!	!	!	!	!	!	!	!	!	!	!	!	!LO:LB:g=original	!	!	!	!	!
=28	=28	=28	=28	=28	=28	=28	=28	=28	=28	=28	=28	=28	=28	=28	=28	=28	=28	=28	=28	=28	=28	=28	=28	=28	=28	=28	=28
8B\L	.	8d/L	.	16g/LL	.	4ddd\	.	2B\	glo-	.	2d\	Glo-	.	2g\	Glo-	.	2ff\	Glo-	.	8g/L	.	8dd\L	.	2ff\	.	2ddd\	.
.	.	.	.	16g/	.	.	.	.	.	.	.	.	.	.	.	.	.	.	.	.	.	.	.	.	.	.	.
8G\	.	8B/	.	16g/	.	.	.	.	.	.	.	.	.	.	.	.	.	.	.	16g/L	.	16dd\L	.	.	.	.	.
.	.	.	.	16g/	.	.	.	.	.	.	.	.	.	.	.	.	.	.	.	16g/JJ	.	16dd\JJ	.	.	.	.	.
*	*	*	*	*	*	*	*	*	*	*	*	*	*	*	*	*	*	*	*	*tremolo	*	*tremolo	*	*	*	*	*
8B\	.	8d/	.	16g/	.	12ddd\L	.	.	.	.	.	.	.	.	.	.	.	.	.	8g/L	.	8dd\L	.	.	.	.	.
.	.	.	.	16g/	.	.	.	.	.	.	.	.	.	.	.	.	.	.	.	.	.	.	.	.	.	.	.
.	.	.	.	.	.	12ccc\	.	.	.	.	.	.	.	.	.	.	.	.	.	.	.	.	.	.	.	.	.
8G\	.	8B/	.	16g/	.	.	.	.	.	.	.	.	.	.	.	.	.	.	.	8g/	.	8dd\	.	.	.	.	.
.	.	.	.	.	.	12bb\J	.	.	.	.	.	.	.	.	.	.	.	.	.	.	.	.	.	.	.	.	.
.	.	.	.	16g/	.	.	.	.	.	.	.	.	.	.	.	.	.	.	.	.	.	.	.	.	.	.	.
8B\	.	8d/	.	16g/	.	12aa\L	.	4B\	-ri-	.	4d\	-ri-	.	4g\	-ri-	.	4ff\	-ri-	.	8g/	.	8dd\	.	4dd\	.	4ff\	.
.	.	.	.	16g/	.	.	.	.	.	.	.	.	.	.	.	.	.	.	.	.	.	.	.	.	.	.	.
.	.	.	.	.	.	12gg\	.	.	.	.	.	.	.	.	.	.	.	.	.	.	.	.	.	.	.	.	.
*	*	*custos:c	*	*	*	*	*	*	*	*	*	*	*	*	*	*	*	*	*	*	*	*	*	*	*	*	*
8G\J	.	8B/J	.	16g/	.	.	.	.	.	.	.	.	.	.	.	.	.	.	.	8g/J	.	8dd\J	.	.	.	.	.
.	.	.	.	.	.	12ff\J	.	.	.	.	.	.	.	.	.	.	.	.	.	.	.	.	.	.	.	.	.
.	.	.	.	16g/JJ	.	.	.	.	.	.	.	.	.	.	.	.	.	.	.	.	.	.	.	.	.	.	.
*	*	*	*	*Xtremolo	*	*	*	*	*	*	*	*	*	*	*	*	*	*	*	*Xtremolo	*	*Xtremolo	*	*	*	*	*
!	!	!LO:LB:g=original	!	!	!	!	!	!	!	!	!	!	!	!	!	!	!	!	!	!	!	!	!	!	!	!	!
=29	=29	=29	=29	=29	=29	=29	=29	=29	=29	=29	=29	=29	=29	=29	=29	=29	=29	=29	=29	=29	=29	=29	=29	=29	=29	=29	=29
4c\	.	4c/	.	4g/	.	12ee\L	.	2.c\	-a	.	2.c\	-a	.	2.g\	-a	.	2.ee\	-a	.	4cc\	.	4ee\	.	2cc\	.	2ee\	.
.	.	.	.	.	.	12cc\	.	.	.	.	.	.	.	.	.	.	.	.	.	.	.	.	.	.	.	.	.
.	.	.	.	.	.	12ee\J	.	.	.	.	.	.	.	.	.	.	.	.	.	.	.	.	.	.	.	.	.
4C/	.	4r	.	4r	.	12gg\L	.	.	.	.	.	.	.	.	.	.	.	.	.	4r	.	4r	.	.	.	.	.
.	.	.	.	.	.	12ee\	.	.	.	.	.	.	.	.	.	.	.	.	.	.	.	.	.	.	.	.	.
.	.	.	.	.	.	12gg\J	.	.	.	.	.	.	.	.	.	.	.	.	.	.	.	.	.	.	.	.	.
4C/	.	4g\	.	4cc\	.	4ccc\	.	.	.	.	.	.	.	.	.	.	.	.	.	4cc\	.	4ee\	.	4cc\	.	4ccc\	.
!	!	!	!	!LO:LB:g=original	!	!	!	!	!	!	!	!	!	!LO:LB:g=original	!	!	!	!	!	!	!	!	!	!	!	!	!
=30	=30	=30	=30	=30	=30	=30	=30	=30	=30	=30	=30	=30	=30	=30	=30	=30	=30	=30	=30	=30	=30	=30	=30	=30	=30	=30	=30
4F\	.	4a\	.	4cc\	.	8aa\L	.	4F\	tu-	.	2c\	tu-	.	4a\	tu-	.	(4ff\	tu-	.	4dd\	.	4ff\	.	4cc\	.	8aa\L	.
.	.	.	.	.	.	16gg\L	.	.	.	.	.	.	.	.	.	.	.	.	.	.	.	.	.	.	.	8ff\J	.
.	.	.	.	.	.	16ff\JJ	.	.	.	.	.	.	.	.	.	.	.	.	.	.	.	.	.	.	.	.	.
4G\	.	4g\	.	4cc\	.	4ee\	.	2G\	-[[a]]-	.	.	.	.	2g\	.	.	4ee\	.	.	4cc\	.	4ee\	.	4cc\	.	4ee\	.
4GG/	.	4g\	.	4b\	.	4dd\	.	.	.	.	4B\	.	.	.	.	.	4dd\)	.	.	4g/	.	4dd\	.	4b\	.	4dd\	.
=31	=31	=31	=31	=31	=31	=31	=31	=31	=31	=31	=31	=31	=31	=31	=31	=31	=31	=31	=31	=31	=31	=31	=31	=31	=31	=31	=31
4C/	.	4g\	.	4cc\	.	4cc\	.	4C/	-a	.	4c\	-a	.	4g\	-a	.	4cc\	-a	.	4e/	.	4cc\	.	4cc\	.	4cc\	.
4C/	.	4r	.	4r	.	4r	.	4r	.	.	4r	.	.	4r	.	.	4r	.	.	4r	.	4r	.	4r	.	4r	.
!	!	!	!	!	!	!	!	!	!	!	!	!	!LO:DY:a:t=p&colon;	!LO:TX:a:t=c	!	!	!	!	!	!	!	!	!	!	!	!	!
4r	.	4r	.	4r	.	4r	.	4C/	O-	.	4c\	O-	p	4c#X/	O-	.	4cc\	O-	.	4r	.	4r	.	4r	.	4r	.
=32	=32	=32	=32	=32	=32	=32	=32	=32	=32	=32	=32	=32	=32	=32	=32	=32	=32	=32	=32	=32	=32	=32	=32	=32	=32	=32	=32
!	!LO:DY:a:t=p.	!	!LO:DY:a:t=pia&colon;	!	!LO:DY:a:t=pia&colon;	!	!LO:DY:a:t=p&colon;:rj	!	!	!LO:DY:a:t=p&colon;:rj	!	!	!	!	!	!LO:DY:a:t=p&colon;:rj	!	!	!LO:DY:a:t=p&colon;:rj	!	!LO:DY:a:t=pia&colon;	!	!LO:DY:a:t=p&colon;	!	!LO:DY:a:t=p&colon;:rj	!	!LO:DY:a:t=pia&colon;
4E\	p	8g\	p	8c/	p	8b-X/	p	2.E\	-ſan-	p	2.c\	-ſan-	.	2.g\	-ſan-	p	2.b-X\	-san-	p	4c/	p	4cc\	p	4g/	p	4b-X/	p
.	.	4g\	.	4c/	.	4b-/	.	.	.	.	.	.	.	.	.	.	.	.	.	.	.	.	.	.	.	.	.
4r	.	.	.	.	.	.	.	.	.	.	.	.	.	.	.	.	.	.	.	4r	.	4r	.	4r	.	4r	.
.	.	4g\	.	4c/	.	4b-/	.	.	.	.	.	.	.	.	.	.	.	.	.	.	.	.	.	.	.	.	.
4E\	.	.	.	.	.	.	.	.	.	.	.	.	.	.	.	.	.	.	.	4r	.	4r	.	4g/	.	4b-/	.
.	.	8g\	.	[<8c/	.	8b-/	.	.	.	.	.	.	.	.	.	.	.	.	.	.	.	.	.	.	.	.	.
=33	=33	=33	=33	=33	=33	=33	=33	=33	=33	=33	=33	=33	=33	=33	=33	=33	=33	=33	=33	=33	=33	=33	=33	=33	=33	=33	=33
4F\	.	8f\	.	8c/]	.	8a/	.	2F\	-na	.	2c\	-na	.	2f\	-na	.	2a\	-na	.	4c/	.	4cc\	.	4f/	.	4a/	.
.	.	4f\	.	4c/	.	4a/	.	.	.	.	.	.	.	.	.	.	.	.	.	.	.	.	.	.	.	.	.
4r	.	.	.	.	.	.	.	.	.	.	.	.	.	.	.	.	.	.	.	4r	.	4r	.	4r	.	4r	.
.	.	4f\	.	4c/	.	4a/	.	.	.	.	.	.	.	.	.	.	.	.	.	.	.	.	.	.	.	.	.
4F\	.	.	.	.	.	.	.	4F\	O-	.	4c\	O-	.	4f\	O-	.	4a\	o-	.	4r	.	4r	.	4f/	.	4a/	.
.	.	8f\	.	[8c/	.	8a/	.	.	.	.	.	.	.	.	.	.	.	.	.	.	.	.	.	.	.	.	.
!	!	!	!	!	!	!	!	!	!	!	!	!	!	!	!	!	!LO:LB:g=original	!	!	!	!	!	!	!LO:LB:g=original	!	!LO:LB:g=original	!
=34	=34	=34	=34	=34	=34	=34	=34	=34	=34	=34	=34	=34	=34	=34	=34	=34	=34	=34	=34	=34	=34	=34	=34	=34	=34	=34	=34
4E\	.	8g\	.	8c/]	.	8b-X/	.	2.E\	-ſan-	.	2.c\	-ſan-	.	2.g\	-ſan-	.	2.b-X\	-san-	.	4c/	.	4cc\	.	4g/	.	4b-X/	.
.	.	4g\	.	4c/	.	4b-/	.	.	.	.	.	.	.	.	.	.	.	.	.	.	.	.	.	.	.	.	.
4r	.	.	.	.	.	.	.	.	.	.	.	.	.	.	.	.	.	.	.	4r	.	4r	.	4r	.	4r	.
.	.	4g\	.	4c/	.	4b-/	.	.	.	.	.	.	.	.	.	.	.	.	.	.	.	.	.	.	.	.	.
4E\	.	.	.	.	.	.	.	.	.	.	.	.	.	.	.	.	.	.	.	4r	.	4r	.	4g/	.	4b-/	.
.	.	8g\	.	[8c/	.	8b-/	.	.	.	.	.	.	.	.	.	.	.	.	.	.	.	.	.	.	.	.	.
=35	=35	=35	=35	=35	=35	=35	=35	=35	=35	=35	=35	=35	=35	=35	=35	=35	=35	=35	=35	=35	=35	=35	=35	=35	=35	=35	=35
4F\	.	8f\	.	8c/]	.	8a/	.	2.F\	-na	.	2.c\	-na	.	2.f\	-na	.	2.a\	-na	.	4c/	.	4cc\	.	4f/	.	4a/	.
.	.	4f\	.	4c/	.	4a/	.	.	.	.	.	.	.	.	.	.	.	.	.	.	.	.	.	.	.	.	.
4r	.	.	.	.	.	.	.	.	.	.	.	.	.	.	.	.	.	.	.	4r	.	4r	.	4r	.	4r	.
.	.	4f\	.	4c/	.	4a/	.	.	.	.	.	.	.	.	.	.	.	.	.	.	.	.	.	.	.	.	.
4F\	.	.	.	.	.	.	.	.	.	.	.	.	.	.	.	.	.	.	.	4r	.	4r	.	4f/	.	4a/	.
.	.	8f\	.	8c/	.	8a/	.	.	.	.	.	.	.	.	.	.	.	.	.	.	.	.	.	.	.	.	.
=36	=36	=36	=36	=36	=36	=36	=36	=36	=36	=36	=36	=36	=36	=36	=36	=36	=36	=36	=36	=36	=36	=36	=36	=36	=36	=36	=36
!	!LO:HP:a:t=creſ.	!	!LO:HP:a:t=creſ.	!	!	!	!LO:HP:a:t=creſ.	!	!	!	!	!	!	!	!	!	!	!	!LO:HP:a:t=Creſ.	!	!	!LO:TX:a:t=g	!	!	!	!	!LO:HP:a:t=creſ.
4G\	<	8d\	<	8f/	.	8bn\	<	2.G\	in	.	2.G/	in	.	2.f\	in	.	2.bn\	in	<	4G/	.	4g/	.	4f/	.	4bn/	<
.	.	4d\	.	4f/	.	4b\	.	.	.	.	.	.	.	.	.	.	.	.	.	.	.	.	.	.	.	.	.
4r	.	.	.	.	.	.	.	.	.	.	.	.	.	.	.	.	.	.	.	4r	.	4r	.	4r	.	4r	.
.	.	4d\	.	4f/	.	4b\	.	.	.	.	.	.	.	.	.	.	.	.	.	.	.	.	.	.	.	.	.
4G\	.	.	.	.	.	.	.	.	.	.	.	.	.	.	.	.	.	.	.	4r	.	4r	.	4f/	.	4b/	.
.	.	8d\	.	8f/	.	8b\	.	.	.	.	.	.	.	.	.	.	.	.	.	.	.	.	.	.	.	.	.
=37	=37	=37	=37	=37	=37	=37	=37	=37	=37	=37	=37	=37	=37	=37	=37	=37	=37	=37	=37	=37	=37	=37	=37	=37	=37	=37	=37
4A\	.	8c\	.	8e/	.	8cc\	.	2.A\	ex-	.	2.c\	ex-	.	2.e\	ex-	.	2.cc\	ex-	.	4c/	.	4cc\	.	4e/	.	4cc\	.
.	.	4c\	.	4e/	.	4cc\	.	.	.	.	.	.	.	.	.	.	.	.	.	.	.	.	.	.	.	.	.
4r	.	.	.	.	.	.	.	.	.	.	.	.	.	.	.	.	.	.	.	4r	.	4r	.	4r	.	4r	.
.	.	4c\	.	4e/	.	4cc\	.	.	.	.	.	.	.	.	.	.	.	.	.	.	.	.	.	.	.	.	.
4A\	.	.	.	.	.	.	.	.	.	.	.	.	.	.	.	.	.	.	.	4r	.	4r	.	4e/	.	4cc\	.
.	.	8c\	.	8e/	.	8cc\	.	.	.	.	.	.	.	.	.	.	.	.	.	.	.	.	.	.	.	.	.
!	!	!	!	!	!	!LO:LB:g=original	!	!LO:LB:g=original	!	!	!	!	!	!	!	!	!	!	!	!LO:LB:g=original	!	!	!	!	!	!	!
=38	=38	=38	=38	=38	=38	=38	=38	=38	=38	=38	=38	=38	=38	=38	=38	=38	=38	=38	=38	=38	=38	=38	=38	=38	=38	=38	=38
4B\	.	8G/	.	8d/	.	8dd\	.	2.B\	-cel-	.	2.G/	-cel-	.	2.g\	-cel-	.	2.dd\	-cel-	.	4g/	.	4g/	.	4g/	.	4dd\	.
.	.	4G/	.	4g/	.	4dd\	.	.	.	.	.	.	.	.	.	.	.	.	.	.	.	.	.	.	.	.	.
4r	.	.	.	.	.	.	.	.	.	.	.	.	.	.	.	.	.	.	.	4r	.	4r	.	4r	.	4r	.
.	.	4G/	.	4g/	.	4dd\	.	.	.	.	.	.	.	.	.	.	.	.	.	.	.	.	.	.	.	.	.
4B\	.	.	.	.	.	.	.	.	.	.	.	.	.	.	.	.	.	.	.	4r	.	4r	.	4g/	.	4dd\	.
.	.	8G/	.	8g/	.	8dd\	.	.	.	.	.	.	.	.	.	.	.	.	.	.	.	.	.	.	.	.	.
!LO:LB:g=original	!	!	!	!	!	!	!	!	!	!	!LO:LB:g=original	!	!	!	!	!	!	!	!	!	!	!	!	!	!	!	!
=39	=39	=39	=39	=39	=39	=39	=39	=39	=39	=39	=39	=39	=39	=39	=39	=39	=39	=39	=39	=39	=39	=39	=39	=39	=39	=39	=39
!	!LO:DY:a:t=f&colon;	!	!LO:DY:a:t=for&colon;	!	!	!	!LO:DY:a:t=f&colon;	!	!	!LO:DY:a:t=f&colon;:rj	!	!	!LO:DY:a:t=for&colon;	!	!	!LO:DY:a	!	!	!LO:DY:a:t=f&colon;	!	!LO:DY:a:t=f&colon;:rj	!	!LO:DY:a:t=f&colon;:rj	!	!LO:DY:a:t=for&colon;	!	!LO:DY:a:t=for&colon;
4c\	f	8G/	f	8g/	.	8ee\	f	2c\	-ſis	f	2c\	-ſis	f	2g\	-ſis	f	2ee\	-sis	f	4cc\	f	4cc\	f	4g/	f	4ee\	f
.	.	4g\	.	4ee\	.	4ccc\	.	.	.	.	.	.	.	.	.	.	.	.	.	.	.	.	.	.	.	.	.
4c\	.	.	.	.	.	.	.	.	.	.	.	.	.	.	.	.	.	.	.	4cc\	.	4ee\	.	4ee\	.	4ccc\	.
.	.	4g\	.	4ee\	.	4ccc\	.	.	.	.	.	.	.	.	.	.	.	.	.	.	.	.	.	.	.	.	.
4c\	.	.	.	.	.	.	.	4c\	O-	.	4c\	O-	.	4g\	O-	.	4ee\	O-	.	4cc\	.	4ee\	.	4ee\	.	4ccc\	.
.	.	8g\	.	[8ee\	.	[8ccc\	.	.	.	.	.	.	.	.	.	.	.	.	.	.	.	.	.	.	.	.	.
=40	=40	=40	=40	=40	=40	=40	=40	=40	=40	=40	=40	=40	=40	=40	=40	=40	=40	=40	=40	=40	=40	=40	=40	=40	=40	=40	=40
4A\	.	8a\	.	8ee\]	.	8ccc\]	.	2A\	-ſan-	.	2c\	-ſan-	.	2a\	-ſan-	.	2ee\	-san-	.	4cc\	.	4ee\	.	2ee\	.	2ccc\	.
.	.	4a\	.	4ee\	.	4ccc\	.	.	.	.	.	.	.	.	.	.	.	.	.	.	.	.	.	.	.	.	.
4A\	.	.	.	.	.	.	.	.	.	.	.	.	.	.	.	.	.	.	.	4cc\	.	4ee\	.	.	.	.	.
.	.	4a\	.	4ee\	.	4ccc\	.	.	.	.	.	.	.	.	.	.	.	.	.	.	.	.	.	.	.	.	.
4A\	.	.	.	.	.	.	.	4A\	-na	.	4c\	-na	.	4a\	-na	.	4ee\	-na	.	4cc\	.	4ee\	.	4ee\	.	4ccc\	.
*	*	*custos:g	*	*	*	*	*	*	*	*	*	*	*	*	*	*	*	*	*	*	*	*	*	*	*	*	*
.	.	8a\	.	[8ee\	.	(8ccc\	.	.	.	.	.	.	.	.	.	.	.	.	.	.	.	.	.	.	.	.	.
!	!	!LO:LB:g=original	!	!LO:LB:g=original	!	!	!	!	!	!	!	!	!	!	!	!	!	!	!	!	!	!	!	!	!	!	!
=41	=41	=41	=41	=41	=41	=41	=41	=41	=41	=41	=41	=41	=41	=41	=41	=41	=41	=41	=41	=41	=41	=41	=41	=41	=41	=41	=41
4E\	.	8g\	.	8ee\]	.	8aa\)	.	2E\	in	.	2c\	in	.	2g\	in	.	2ee\	in	.	4cc\	.	4ee\	.	2ee\	.	2ccc\	.
.	.	4g\	.	4ee\	.	4ccc\	.	.	.	.	.	.	.	.	.	.	.	.	.	.	.	.	.	.	.	.	.
4E\	.	.	.	.	.	.	.	.	.	.	.	.	.	.	.	.	.	.	.	4ee\	.	4gg\	.	.	.	.	.
.	.	4g\	.	4ee\	.	4ccc\	.	.	.	.	.	.	.	.	.	.	.	.	.	.	.	.	.	.	.	.	.
4E\	.	.	.	.	.	.	.	4E\	ex-	.	4c\	ex-	.	4g\	ex-	.	4ee\	ex-	.	4ee\	.	4gg\	.	4ee\	.	4ccc\	.
.	.	8g\	.	8ee\	.	8ccc\	.	.	.	.	.	.	.	.	.	.	.	.	.	.	.	.	.	.	.	.	.
!	!	!	!	!	!	!	!	!	!	!	!	!	!	!	!	!	!	!	!	!	!	!LO:LB:g=original	!	!	!	!	!
=42	=42	=42	=42	=42	=42	=42	=42	=42	=42	=42	=42	=42	=42	=42	=42	=42	=42	=42	=42	=42	=42	=42	=42	=42	=42	=42	=42
.	.	.	.	.	.	8qbb/	.	.	.	.	.	.	.	.	.	.	.	.	.	.	.	.	.	.	.	.	.
4F\	.	4a\	.	8ff\L	.	8aa\L	.	4F\	-cel-	.	2c\	-cel-	.	4a\	-cel-	.	(4ff\	-cel-	.	8ff\L	.	8aa\L	.	8ff\L	.	8aa\L	.
.	.	.	.	16ee\L	.	16gg\L	.	.	.	.	.	.	.	.	.	.	.	.	.	8dd\J	.	8ff\J	.	8dd\J	.	8ff\J	.
.	.	.	.	16dd\JJ	.	16ff\JJ	.	.	.	.	.	.	.	.	.	.	.	.	.	.	.	.	.	.	.	.	.
4G\	.	4g\	.	4cc\	.	4ee\	.	2G\	.	.	.	.	.	2g\	.	.	4ee\	.	.	4cc\	.	4ee\	.	4cc\	.	4ee\	.
4GG/	.	4g\	.	4b\	.	4dd\	.	.	.	.	4B\	.	.	.	.	.	4dd\)	.	.	4g/	.	4dd\	.	4b\	.	4dd\	.
=43	=43	=43	=43	=43	=43	=43	=43	=43	=43	=43	=43	=43	=43	=43	=43	=43	=43	=43	=43	=43	=43	=43	=43	=43	=43	=43	=43
4C/	.	4g\	.	4cc\	.	4cc\	.	4C/	-ſis	.	4c\	-ſis	.	4g\	-ſiſ	.	4cc\	-sis	.	4e/	.	4cc\	.	4cc\	.	4cc\	.
4C/	.	4g\	.	4ee\	.	12cc\L	.	4C/	in	.	4c\	in	.	4g\	in	.	4ee\	in	.	4cc\	.	4ee\	.	4cc\	.	8ee\L	.
.	.	.	.	.	.	12ee\	.	.	.	.	.	.	.	.	.	.	.	.	.	.	.	.	.	.	.	.	.
.	.	.	.	.	.	.	.	.	.	.	.	.	.	.	.	.	.	.	.	.	.	.	.	.	.	8gg\	.
.	.	.	.	.	.	12ff\J	.	.	.	.	.	.	.	.	.	.	.	.	.	.	.	.	.	.	.	.	.
4G\	.	4g\	.	4dd\	.	12gg\L	.	4G\	ex-	.	4B\	ex-	.	4g\	ex-	.	4dd\	ex-	.	4g/	.	4dd\	.	4dd\	.	8aa\	.
.	.	.	.	.	.	12aa\	.	.	.	.	.	.	.	.	.	.	.	.	.	.	.	.	.	.	.	.	.
.	.	.	.	.	.	.	.	.	.	.	.	.	.	.	.	.	.	.	.	.	.	.	.	.	.	8bb\J	.
.	.	.	.	.	.	12bb\J	.	.	.	.	.	.	.	.	.	.	.	.	.	.	.	.	.	.	.	.	.
=44	=44	=44	=44	=44	=44	=44	=44	=44	=44	=44	=44	=44	=44	=44	=44	=44	=44	=44	=44	=44	=44	=44	=44	=44	=44	=44	=44
4c\	.	4g\	.	4ee\	.	4ccc\	.	4c\	-cel-	.	4c\	-cel-	.	4g\	-cel-	.	4ee\	-cel-	.	4cc\	.	4ee\	.	4ee\	.	4ccc\	.
4C/	.	4g\	.	4ee\	.	4ccc\	.	4C/	-ſis.	.	4c\	-ſis	.	4g\	-ſiſ	.	4ee\	-sis	.	4cc\	.	4ee\	.	4ee\	.	4ccc\	.
!	!	!	!	!	!	!	!	!	!	!	!	!	!	!	!	!	!LO:TX:b:i:t=Sequitur Benedict(us)	!	!	!	!	!	!	!	!	!	!
4r	.	4r	.	4r	.	4r	.	4r	.	.	4r	.	.	4r	.	.	4r	.	.	4r	.	4r	.	4r	.	4r	.
==	==	==	==	==	==	==	==	==	==	==	==	==	==	==	==	==	==	==	==	==	==	==	==	==	==	==	==
*-	*-	*-	*-	*-	*-	*-	*-	*-	*-	*-	*-	*-	*-	*-	*-	*-	*-	*-	*-	*-	*-	*-	*-	*-	*-	*-	*-
!!!system-decoration: [(s1,s2)][(s3,s4)][(s5,s6,s7,s8)][(s9,s10,s11,s12)]s13
!!!RDF**kern: < = below
!!!RDF**kern: > = above
!!!ENC: Andrzej Gręziak
!!!END: 2020-09-19
!!!ENC: Marta Chmielewska
!!!END: 2022-02-03
